X:1
T:Partition sans titre
C:Compositeur / Arrangeur
L:1/4
M:4/4
I:linebreak $
K:C
V:1 treble nm="Violon" snm="Vln."
V:1
"C" G A/B/ c c |"G" B/c/d/B/"C" c2 |"G" d/e/f/d/"C" e c |1"G" d c B/A/ G :|2"G" d B"C" c2 |: %5
"G" d e/f/ g g | f e d3/2 e/ |"F" f d"C" e c |1"G" d c B/A/ G :|2"G" d B"C" c2 |] %10
